X: 1
T: Merry Pickleweasel Of Inverness, The
M: 6/8
L: 1/8
R: jig
K: Emin
|: E2E G2G | ABA G2G |  FGF EFD | E3 Ez2 :|
G2G A2A | BAB c2z | c2c d2d | ede f2z |
c2c B2B | ABA G2G | FGF EFD | E3 Ez2 ||
